boxicons/svg/regular/bx-shape-polygon.svg

<svg xmlns="http://www.w3.org/2000/svg" width="24" height="24" viewBox="0 0 24 24"><path d="M20 14.185v-2.369A2.997 2.997 0 0 0 22 9c0-1.654-1.346-3-3-3a2.99 2.99 0 0 0-2.116.876L12.969 5.31c.01-.103.031-.204.031-.31 0-1.654-1.346-3-3-3S7 3.346 7 5c0 .762.295 1.451.765 1.981L6.091 9.212A2.977 2.977 0 0 0 5 9c-1.654 0-3 1.346-3 3s1.346 3 3 3c.159 0 .313-.023.465-.047L7.4 17.532c-.248.436-.4.932-.4 1.468 0 1.654 1.346 3 3 3a2.994 2.994 0 0 0 2.863-2.153l3.962-.792A2.987 2.987 0 0 0 19 20c1.654 0 3-1.346 3-3a2.995 2.995 0 0 0-2-2.815zM19 8a1.001 1.001 0 1 1-1 1c0-.551.448-1 1-1zm-9-4a1.001 1.001 0 1 1-1 1c0-.551.448-1 1-1zm-6 8a1.001 1.001 0 1 1 1 1c-.552 0-1-.449-1-1zm6 8a1 1 0 1 1 0-2 1 1 0 0 1 0 2zm2.761-2.172A3.005 3.005 0 0 0 10 16c-.386 0-.752.079-1.091.213l-1.674-2.231C7.705 13.451 8 12.762 8 12c0-.536-.152-1.032-.399-1.467l1.935-2.58c.152.024.305.047.464.047a2.99 2.99 0 0 0 2.116-.876l3.915 1.566c-.01.103-.031.204-.031.31 0 1.302.839 2.401 2 2.815v2.369a2.996 2.996 0 0 0-2 2.815c0 .061.015.117.018.177l-3.257.652zM19 18a1 1 0 1 1 0-2 1 1 0 0 1 0 2z"/></svg>

<svg xmlns="http://www.w3.org/2000/svg" width="24" height="24" viewBox="0 0 24 24"><path d="M20,14.185v-2.369c1.161-0.415,2-1.514,2-2.816c0-1.654-1.346-3-3-3c-0.825,0-1.573,0.335-2.116,0.876l-3.915-1.566 C12.979,5.207,13,5.106,13,5c0-1.654-1.346-3-3-3S7,3.346,7,5c0,0.762,0.295,1.451,0.765,1.981L6.091,9.212 C5.752,9.079,5.386,9,5,9c-1.654,0-3,1.346-3,3s1.346,3,3,3c0.159,0,0.313-0.023,0.465-0.047l1.935,2.579 C7.152,17.968,7,18.464,7,19c0,1.654,1.346,3,3,3c1.358,0,2.495-0.913,2.863-2.153l3.962-0.792C17.373,19.634,18.143,20,19,20 c1.654,0,3-1.346,3-3C22,15.698,21.161,14.599,20,14.185z M19,8c0.552,0,1,0.449,1,1s-0.448,1-1,1s-1-0.449-1-1S18.448,8,19,8z M10,4c0.552,0,1,0.449,1,1s-0.448,1-1,1S9,5.551,9,5S9.448,4,10,4z M4,12c0-0.551,0.448-1,1-1s1,0.449,1,1s-0.448,1-1,1 S4,12.551,4,12z M10,20c-0.552,0-1-0.448-1-1s0.448-1,1-1s1,0.448,1,1S10.552,20,10,20z M12.761,17.828 C12.304,16.755,11.238,16,10,16c-0.386,0-0.752,0.079-1.091,0.213l-1.674-2.231C7.705,13.451,8,12.762,8,12 c0-0.536-0.152-1.032-0.399-1.467l1.935-2.58C9.688,7.977,9.841,8,10,8c0.825,0,1.573-0.335,2.116-0.876l3.915,1.566 C16.021,8.793,16,8.894,16,9c0,1.302,0.839,2.401,2,2.815v2.369c-1.161,0.414-2,1.514-2,2.815c0,0.061,0.015,0.117,0.018,0.177 L12.761,17.828z M19,18c-0.552,0-1-0.448-1-1s0.448-1,1-1s1,0.448,1,1S19.552,18,19,18z"/></svg>
